packages/kaspersky-hexa-ui-icons/src/iconsSVGs/28x20/FlagGd.svg

<svg width="28" height="20" viewBox="0 0 28 20" fill="none" xmlns="http://www.w3.org/2000/svg">
<g clip-path="url(#clip0_5138_905)">
<rect width="28" height="20" rx="2" fill="white"/>
<mask id="mask0_5138_905" style="mask-type:luminance" maskUnits="userSpaceOnUse" x="0" y="0" width="28" height="20">
<rect width="28" height="20" rx="2" fill="white"/>
</mask>
<g mask="url(#mask0_5138_905)">
<rect width="28" height="20" fill="#E42235"/>
</g>
<g clip-path="url(#clip1_5138_905)">
<rect x="2.66667" y="2.66666" width="22.6667" height="14.6667" fill="#079B77"/>
<mask id="mask1_5138_905" style="mask-type:luminance" maskUnits="userSpaceOnUse" x="2" y="2" width="24" height="16">
<rect x="2.66667" y="2.66666" width="22.6667" height="14.6667" fill="white"/>
</mask>
<g mask="url(#mask1_5138_905)">
<path fill-rule="evenodd" clip-rule="evenodd" d="M4.39317 10.1318C4.77068 10.7359 5.31265 11.1347 5.81745 11.237C6.09536 11.2934 5.58654 10.0189 5.80827 9.8803C5.99746 9.76208 6.90772 10.822 6.98743 10.6008C7.17082 10.0921 7.06264 9.3716 6.65463 8.71866C6.0693 7.78194 6.04645 8.40019 4.46406 7.72913C4.62951 8.68881 3.80784 9.19505 4.39317 10.1318Z" fill="#FFD938"/>
<path fill-rule="evenodd" clip-rule="evenodd" d="M14 9.99999L25.3333 2.66666H2.66667L14 9.99999ZM14 9.99999L2.66667 17.3333H25.3333L14 9.99999Z" fill="#FFD93B"/>
<circle cx="14" cy="9.99999" r="3.33333" fill="url(#paint0_linear_5138_905)"/>
<path fill-rule="evenodd" clip-rule="evenodd" d="M14 11.0284L12.4326 12.1574L13.0219 10.3178L11.4639 9.17593L13.3955 9.16799L14 7.33331L14.6045 9.16799L16.5362 9.17593L14.9781 10.3178L15.5674 12.1574L14 11.0284Z" fill="#FFD938"/>
</g>
</g>
</g>
<defs>
<linearGradient id="paint0_linear_5138_905" x1="10.6667" y1="6.66666" x2="10.6667" y2="13.3333" gradientUnits="userSpaceOnUse">
<stop stop-color="#E21C30"/>
<stop offset="1" stop-color="#CE1225"/>
</linearGradient>
<clipPath id="clip0_5138_905">
<rect width="28" height="20" fill="white"/>
</clipPath>
<clipPath id="clip1_5138_905">
<rect width="23" height="15" fill="white" transform="translate(2.66667 2.66666)"/>
</clipPath>
</defs>
</svg>

<svg xmlns="http://www.w3.org/2000/svg" width="28" height="20" fill="none" viewBox="0 0 28 20"><g clip-path="url(#a)"><rect width="28" height="20" fill="#fff" rx="2"/><mask id="b" width="28" height="20" x="0" y="0" maskUnits="userSpaceOnUse" style="mask-type:luminance"><rect width="28" height="20" fill="#fff" rx="2"/></mask><g mask="url(#b)"><path fill="#e42235" d="M0 0h28v20H0z"/></g><g clip-path="url(#c)"><path fill="#079b77" d="M2.6667 2.6667h22.6667v14.6667H2.6667z"/><mask id="d" width="24" height="16" x="2" y="2" maskUnits="userSpaceOnUse" style="mask-type:luminance"><path fill="#fff" d="M2.6667 2.6667h22.6667v14.6667H2.6667z"/></mask><g mask="url(#d)"><path fill="#ffd938" fill-rule="evenodd" d="M4.3932 10.1318c.3775.6041.9194 1.0029 1.4242 1.1052.278.0564-.2309-1.2181-.0091-1.3567.1892-.1182 1.0994.9417 1.1791.7205.1834-.5087.0752-1.2292-.3328-1.8821-.5853-.9368-.6082-.3185-2.1905-.9896.1654.9597-.6563 1.466-.071 2.4027" clip-rule="evenodd"/><path fill="#ffd93b" fill-rule="evenodd" d="m14 10 11.3333-7.3333H2.6667zm0 0L2.6667 17.3333h22.6666z" clip-rule="evenodd"/><circle cx="14" cy="10" r="3" fill="url(#e)"/><path fill="#ffd938" fill-rule="evenodd" d="m14 11.0284-1.5674 1.129.5893-1.8396-1.558-1.1419 1.9316-.008L14 7.3334l.6045 1.8347 1.9317.008-1.5581 1.1418.5893 1.8396z" clip-rule="evenodd"/></g></g></g><defs><clipPath id="a"><path fill="#fff" d="M0 0h28v20H0z"/></clipPath><clipPath id="c"><path fill="#fff" d="M2.6667 2.6667h23v15h-23z"/></clipPath><linearGradient id="e" x1="11" x2="11" y1="7" y2="13" gradientUnits="userSpaceOnUse"><stop stop-color="#e21c30"/><stop offset="1" stop-color="#ce1225"/></linearGradient></defs></svg>
